X:1
T:Title
%%score ( 1 2 ) 3
L:1/8
Q:1/4=105
M:9/8
K:Eb
V:1 treble nm="Strings 1, Soprano"
V:2 treble 
V:3 bass nm="Strings 1, Bass"
V:1
 z3 z3 [EG]2 [FA] | [GB]3 [GB]3 Be[EG] | [DB]3 [DA]3 [FA]2 [EG] | [DF]3- [DF]2 [DF] [DB]2 [DF] | %4
w: 1.~On ly~|Je sus,~ pre * cious~|Je sus,~ Can~ our~|eve * ry~ sor row~|
 [FA]3 [EG]3 [EG]2 [FA] | [GB]3 [GB]3 Be[EG] | [DB]3 [DA]3 [Fd]2 [Ec] | %7
w: know;~ * He~ a|lone~ can~ tru * ly~|help~ us~ Through~ life's~|
 [DB]3- [DB]2 [DB] [DA]2 [DF] | [B,E]6 [EB]2 [EB] | [DB]3- [DB]2 [DF] [FA]2 [GB] | %10
w: jour * ney~ here~ be|low.~ * *||
 [FA]3 [EG]3 [EG]2 [EG] | [DF]3- [DF]2 [Fe] [Fd]2 [Ec] | [DB]3 [FA]3 [EG]2 [FA] | %13
w: |||
 [GB]3 [GB]3 Be[EG] | [DB]3 [DA]3 [Fd]2 [Ec] | [DB]3- [DB]2 [DB] [DA]2 [DF] | [B,E]6 z3 |] %17
w: ||||
V:2
 x9 | z3 z3 .G3 | x9 | x9 | x9 | z3 z3 .G3 | x9 | x9 | x9 | x9 | x9 | x9 | x9 | z3 z3 .G3 | x9 | %15
 x9 | x9 |] %17
V:3
 z3 z3 [E,B,]2 [E,B,] | [E,E]3 [E,E]3 [E,E]2 [E,B,] | [F,B,]3 [F,B,]3 [D,B,]2 [E,B,] | %3
 [B,,B,]3- [B,,B,]2 [B,,B,] [B,,F,]2 [B,,B,] | [E,B,]6 [E,B,]2 [E,B,] | %5
 [E,E]3 [E,E]3 [E,E]2 [E,B,] | [F,B,]3 [F,B,]3 [B,,B,]2 [B,,B,] | %7
 [B,,F,]3- [B,,F,]2 [B,,F,] [B,,F,]2 [B,,A,] | [E,G,]6 [E,G,]2 [E,G,] | %9
 [B,,F,]3- [B,,F,]2 [B,,B,] [B,,B,]2 [B,,B,] | [E,B,]3 [E,B,]3 [E,B,]2 [E,B,] | %11
 [F,B,]3- [F,B,]2 [F,C] [F,B,]2 [F,=A,] | [B,,B,]6 [E,B,]2 [E,B,] | [E,E]3 [E,E]3 [E,E]2 [E,B,] | %14
 [F,B,]3 [F,B,]3 [B,,B,]2 [B,,B,] | [B,,F,]3- [B,,F,]2 [B,,F,] [B,,F,]2 [B,,A,] | [E,G,]6 z3 |] %17

